cy/rack-server-outline-badged.svg

<svg viewBox="0 0 36 36" xmlns="http://www.w3.org/2000/svg" height="1em" width="1em">
  <path class="clr-i-outline--badged clr-i-outline-path-1--badged" d="M6 9h2v2H6z"/>
  <path class="clr-i-outline--badged clr-i-outline-path-2--badged" d="M6 17h2v2H6z"/>
  <path class="clr-i-outline--badged clr-i-outline-path-3--badged" d="M10 17h14v2H10z"/>
  <path class="clr-i-outline--badged clr-i-outline-path-4--badged" d="M6 25h2v2H6z"/>
  <path class="clr-i-outline--badged clr-i-outline-path-5--badged" d="M10 25h14v2H10z"/>
  <path class="clr-i-outline--badged clr-i-outline-path-6--badged" d="M10 11h14v-.51A7.48 7.48 0 0 1 23.13 9H10Z"/>
  <path class="clr-i-outline--badged clr-i-outline-path-7--badged" d="M30 13.5a7.47 7.47 0 0 1-2.68-.5H4V7h18.57a7.52 7.52 0 0 1-.07-1 7.52 7.52 0 0 1 .07-1H4a2 2 0 0 0-2 2v22a2 2 0 0 0 2 2h28a2 2 0 0 0 2-2V12.34a7.46 7.46 0 0 1-4 1.16ZM4 15h28v6H4Zm0 14v-6h28v6Z"/>
  <circle class="clr-i-outline--badged clr-i-outline-path-8--badged clr-i-badge" cx="30" cy="6" r="5"/>
  <path fill="none" d="M0 0h36v36H0z"/>
</svg>

<svg version="1.1" viewBox="0 0 36 36" preserveAspectRatio="xMidYMid meet" xmlns="http://www.w3.org/2000/svg" height="1em" width="1em">
  <rect class="clr-i-outline--badged clr-i-outline-path-1--badged" x="6" y="9" width="2" height="2"/>
  <rect class="clr-i-outline--badged clr-i-outline-path-2--badged" x="6" y="17" width="2" height="2"/>
  <rect class="clr-i-outline--badged clr-i-outline-path-3--badged" x="10" y="17" width="14" height="2"/>
  <rect class="clr-i-outline--badged clr-i-outline-path-4--badged" x="6" y="25" width="2" height="2"/>
  <rect class="clr-i-outline--badged clr-i-outline-path-5--badged" x="10" y="25" width="14" height="2"/>
  <path class="clr-i-outline--badged clr-i-outline-path-6--badged" d="M10,11H24v-.51A7.48,7.48,0,0,1,23.13,9H10Z"/>
  <path class="clr-i-outline--badged clr-i-outline-path-7--badged" d="M30,13.5a7.47,7.47,0,0,1-2.68-.5H4V7H22.57a7.52,7.52,0,0,1-.07-1,7.52,7.52,0,0,1,.07-1H4A2,2,0,0,0,2,7V29a2,2,0,0,0,2,2H32a2,2,0,0,0,2-2V12.34A7.46,7.46,0,0,1,30,13.5ZM4,15H32v6H4ZM4,29V23H32v6Z"/>
  <circle class="clr-i-outline--badged clr-i-outline-path-8--badged clr-i-badge" cx="30" cy="6" r="5"/>
  <rect x="0" y="0" width="36" height="36" fill-opacity="0"/>
</svg>
